brandFactory_export/3.Masa/Comprar productos hogar_3Masa.svg

<?xml version="1.0" encoding="UTF-8"?>
<svg width="24px" height="24px" viewBox="0 0 24 24" version="1.1" xmlns="http://www.w3.org/2000/svg" xmlns:xlink="http://www.w3.org/1999/xlink">
    <title>3.Masa/Comprar productos hogar_3Masa</title>
    <g id="Symbols" stroke="none" stroke-width="1" fill="none" fill-rule="evenodd">
        <g id="3.Masa/Comprar-productos-hogar_3Masa" fill="#5CB615" fill-rule="nonzero">
            <path d="M10.1714286,19.6436975 C10.7697479,19.6436975 11.2537815,19.8151261 11.6033613,20.1512605 C11.9697479,20.5042017 12.1546218,20.9983193 12.1546218,21.6268908 C12.1546218,22.2554622 11.9697479,22.7495798 11.6033613,23.102521 C11.2571429,23.4386555 10.7731092,23.610084 10.1714286,23.610084 C9.5697479,23.610084 9.08907563,23.4386555 8.7394958,23.102521 C8.37310924,22.7495798 8.18823529,22.2554622 8.18823529,21.6268908 C8.18823529,20.9983193 8.37310924,20.5042017 8.7394958,20.1512605 C9.08907563,19.8151261 9.57310924,19.6436975 10.1714286,19.6436975 Z M16.7260504,19.6436975 C17.3243697,19.6436975 17.8084034,19.8151261 18.1579832,20.1512605 C18.5210084,20.5042017 18.7092437,20.9983193 18.7092437,21.6268908 C18.7092437,22.2554622 18.5243697,22.7495798 18.1579832,23.102521 C17.8117647,23.4386555 17.3277311,23.610084 16.7260504,23.610084 C16.1243697,23.610084 15.6436975,23.4386555 15.2941176,23.102521 C14.9277311,22.7495798 14.7428571,22.2554622 14.7428571,21.6268908 C14.7428571,20.9983193 14.9277311,20.5042017 15.2941176,20.1512605 C15.6436975,19.8151261 16.1277311,19.6436975 16.7260504,19.6436975 Z M2.3092437,0.0134453782 C3.94957983,0.0134453782 5.33109244,1.07226891 5.59327731,2.53445378 C5.65173815,2.86140142 5.85943486,4.05517242 6.11978769,5.55931009 L9.76134454,5.55966387 L9.77844538,5.56044538 L13.9462185,1.17983193 C14.0739496,1.04537815 14.2487395,0.971428571 14.4336134,0.971428571 C14.6184874,0.971428571 14.7932773,1.0487395 14.9210084,1.17983193 L16.0470588,2.36638655 L16.0470588,2.29915966 C16.0470588,1.92941176 16.3495798,1.62689076 16.7193277,1.62689076 L18.6857143,1.62689076 C19.0554622,1.62689076 19.3579832,1.92941176 19.3579832,2.29915966 L19.3571739,5.6021719 C19.425021,5.57898126 19.4976657,5.56638655 19.5731092,5.56638655 L22.9243697,5.56638655 C23.2941176,5.56638655 23.5966387,5.86890756 23.5966387,6.23865546 C23.5966387,6.29579832 23.589916,6.34957983 23.5764706,6.40336134 C23.3915966,7.13613445 23.0420168,8.54453782 22.6689076,10.0369748 C22.2184874,11.8521008 21.7512605,13.7277311 21.610084,14.2722689 C21.2907563,15.502521 20.8268908,16.4067227 20.1915966,17.0420168 C19.5193277,17.707563 18.6756303,18.0470588 17.6806723,18.0470588 L10.1714286,18.0470588 C9.16638655,18.0470588 8.27563025,17.707563 7.59327731,17.0689076 C6.88403361,16.4 6.42352941,15.4352941 6.22857143,14.2016807 C6.0605042,13.1327731 4.44705882,3.78151261 4.26554622,2.7697479 C4.1210084,1.96302521 3.28067227,1.35798319 2.30588235,1.35798319 L0.685714285,1.35798319 C0.315966386,1.35798319 0.0134453779,1.05546218 0.0134453779,0.685714286 C0.0134453779,0.315966387 0.315966386,0.0134453782 0.685714285,0.0134453782 L2.3092437,0.0134453782 Z M14.4336134,2.62184874 L9.76470588,7.52941176 L10.1647059,7.52941176 C10.5344538,7.52941176 10.8369748,7.83193277 10.8369748,8.20168067 L10.8369748,12.7697479 L18.0134454,12.7697479 L18.0134454,8.19831933 C18.0134454,7.82857143 18.3159664,7.52605042 18.6857143,7.52605042 L19.0890756,7.52605042 L18.1983193,6.58823529 C18.0806723,6.46386555 18.0134454,6.29915966 18.0134454,6.12436975 L18.0134454,2.97142857 L17.3915966,2.97142857 L17.3915966,4.05378151 C17.3915966,4.42352941 17.0890756,4.72605042 16.7193277,4.72605042 C16.5344538,4.72605042 16.3596639,4.6487395 16.2319328,4.51764706 L14.4336134,2.62184874 Z" id="Comprar-productos-hogar_3Masa"></path>
        </g>
    </g>
</svg>

<svg width="24" height="24" viewBox="0 0 24 24" xmlns="http://www.w3.org/2000/svg"><path d="M10.171 19.644c.599 0 1.083.171 1.432.507.367.353.552.847.552 1.476 0 .628-.185 1.123-.552 1.476-.346.336-.83.507-1.432.507-.601 0-1.082-.171-1.432-.507-.366-.353-.55-.848-.55-1.476 0-.629.184-1.123.55-1.476.35-.336.834-.507 1.432-.507zm6.555 0c.598 0 1.082.171 1.432.507.363.353.551.847.551 1.476 0 .628-.185 1.123-.551 1.476-.346.336-.83.507-1.432.507s-1.082-.171-1.432-.507c-.366-.353-.551-.848-.551-1.476 0-.629.185-1.123.551-1.476.35-.336.834-.507 1.432-.507zM2.31.014c1.64 0 3.022 1.058 3.284 2.52.059.327.266 1.521.527 3.025H9.76l.017.001 4.168-4.38a.669.669 0 01.488-.209c.184 0 .36.078.487.209l1.126 1.186V2.3c0-.37.303-.672.672-.672h1.967c.37 0 .672.302.672.672v3.303a.666.666 0 01.215-.036h3.351a.674.674 0 01.652.837c-.184.733-.534 2.142-.907 3.634a739.94 739.94 0 01-1.059 4.235c-.32 1.23-.783 2.135-1.418 2.77-.673.666-1.516 1.005-2.511 1.005h-7.51c-1.005 0-1.895-.34-2.578-.978-.709-.669-1.17-1.634-1.364-2.867-.168-1.07-1.782-10.42-1.963-11.432-.145-.807-.985-1.412-1.96-1.412H.686A.674.674 0 01.013.686c0-.37.303-.673.673-.673h1.623zm12.125 2.608l-4.67 4.907h.4c.37 0 .673.303.673.673v4.568h7.176V8.198c0-.37.303-.672.673-.672h.403l-.89-.938a.674.674 0 01-.186-.464V2.971h-.621v1.083a.674.674 0 01-1.16.464l-1.798-1.896z" fill="#5CB615" fill-rule="nonzero"/></svg>
